images/telegram.svg

<svg width="40" height="40" viewBox="0 0 40 40" fill="none" xmlns="http://www.w3.org/2000/svg">
<path d="M32.5875 4.99505C32.1862 5.02425 31.7924 5.11839 31.4213 5.2738H31.4163C31.06 5.41505 29.3663 6.12755 26.7913 7.20755L17.5638 11.0938C10.9425 13.8813 4.43378 16.6263 4.43378 16.6263L4.51128 16.5963C4.51128 16.5963 4.06253 16.7438 3.59378 17.0651C3.30419 17.2493 3.05499 17.4904 2.86128 17.7738C2.63128 18.1113 2.44628 18.6276 2.51503 19.1613C2.62753 20.0638 3.21253 20.6051 3.63253 20.9038C4.05753 21.2063 4.46253 21.3476 4.46253 21.3476H4.47253L10.5763 23.4038C10.85 24.2826 12.4363 29.4976 12.8175 30.6988C13.0425 31.4163 13.2613 31.8651 13.535 32.2076C13.6675 32.3826 13.8225 32.5288 14.0088 32.6463C14.1056 32.7026 14.2088 32.7471 14.3163 32.7788L14.2538 32.7638C14.2725 32.7688 14.2875 32.7838 14.3013 32.7888C14.3513 32.8026 14.385 32.8076 14.4488 32.8176C15.415 33.1101 16.1913 32.5101 16.1913 32.5101L16.235 32.4751L19.8388 29.1938L25.8788 33.8276L26.0163 33.8863C27.275 34.4388 28.55 34.1313 29.2238 33.5888C29.9025 33.0426 30.1663 32.3438 30.1663 32.3438L30.21 32.2313L34.8775 8.32005C35.01 7.73005 35.0438 7.17755 34.8975 6.6413C34.7467 6.09859 34.3985 5.63181 33.9213 5.33255C33.5206 5.08895 33.0559 4.97136 32.5875 4.99505ZM32.4613 7.55755C32.4563 7.6363 32.4713 7.62755 32.4363 7.7788V7.79255L27.8125 31.4551C27.7925 31.4888 27.7588 31.5626 27.6663 31.6363C27.5688 31.7138 27.4913 31.7626 27.085 31.6013L19.6975 25.9376L15.235 30.0051L16.1725 24.0176L28.2425 12.7676C28.74 12.3051 28.5738 12.2076 28.5738 12.2076C28.6088 11.6401 27.8225 12.0413 27.8225 12.0413L12.6025 21.4701L12.5975 21.4451L5.30253 18.9888V18.9838L5.28378 18.9801C5.29656 18.9758 5.30909 18.9708 5.32128 18.9651L5.36128 18.9451L5.40003 18.9313C5.40003 18.9313 11.9138 16.1863 18.535 13.3988C21.85 12.0026 25.19 10.5963 27.7588 9.5113C30.3275 8.43255 32.2263 7.6413 32.3338 7.5988C32.4363 7.5588 32.3875 7.5588 32.4613 7.5588V7.55755Z" fill="white"/>
</svg>

<svg xmlns="http://www.w3.org/2000/svg" width="40" height="40" fill="none"><path fill="#fff" d="M32.587 4.995c-.4.03-.795.123-1.166.279h-.005c-.356.141-2.05.854-4.625 1.934l-9.227 3.886c-6.621 2.787-13.13 5.532-13.13 5.532l.077-.03s-.448.148-.917.47c-.29.183-.539.424-.733.708-.23.337-.415.854-.346 1.387.113.903.698 1.444 1.118 1.743.425.302.83.444.83.444h.01l6.103 2.056c.274.879 1.86 6.094 2.242 7.295.225.717.443 1.166.717 1.509.133.175.287.32.474.438.097.057.2.101.307.133l-.062-.015c.019.005.034.02.047.025.05.014.084.019.148.029.966.292 1.742-.308 1.742-.308l.044-.035 3.604-3.281 6.04 4.634.137.058c1.259.553 2.534.245 3.208-.297a3.265 3.265 0 0 0 .942-1.245l.044-.113 4.667-23.91c.133-.59.167-1.143.02-1.68a2.259 2.259 0 0 0-.976-1.308 2.34 2.34 0 0 0-1.334-.338Zm-.126 2.563c-.005.078.01.07-.025.22v.015l-4.623 23.662c-.02.034-.054.108-.147.181-.097.078-.175.127-.581-.035l-7.387-5.663-4.463 4.067.938-5.987 12.07-11.25c.497-.463.33-.56.33-.56.036-.568-.75-.167-.75-.167l-15.22 9.43-.005-.026-7.295-2.456v-.005l-.02-.004a.358.358 0 0 0 .038-.015l.04-.02.039-.014s6.514-2.745 13.135-5.532c3.315-1.396 6.655-2.803 9.224-3.888 2.569-1.078 4.467-1.87 4.575-1.912.102-.04.053-.04.127-.04v-.001Z"/></svg>
